X:5
T:Bonnie's Sanded Floor
R:jig
C:Andrea Beaton
D:Andrea Beaton, Cuts
Z:Paul Stewart Cranford (P.S.C.), <http://www.cranfordpub.com>
L:1/8
M:6/8
Q:300
K:A
B|AEA c2 e|aga fec|dfd ecA|BcB EGB|
AEA c2 e|aga fec|BcB EGB|A3 A2:|
|:G|FCF A2 B|cfg agf|eBe gbg|efe cBG|
FCF A2 B|cfg agf|eBe cBG|F3 F2:|
